X:1
T:Title
%%score { ( 1 3 ) | ( 2 4 ) }
L:1/8
M:4/4
K:G
V:1 treble nm="Grand Piano"
V:3 treble 
V:2 bass 
V:4 bass 
V:1
 z4 z2[Q:1/4=100] D>D | G>G G>G B2 G>G | A6 z2 | [FA]>[FA] [FA]>[GB] [Ac]2 [FA]>[FA] | B6 z2 | %5
 d>d d>d B2 A>B | [EAc]>[EAc] [EAc]>[EAc] [CEA]2 (3[CE-A][EB][EAc] | %7
 [DGB]>[DGB] [DGB]>[DGB] [CFA]2 (3[CF-A][FB][CFA] |[M:3/4] [B,G]6 |[M:1/4] D>D |[M:4/4] G4 z4 | %11
 A6 z2 | A4 z4 | B6 z2 | d>d d>d B2 A>B | [EAc]>[EAc] [EAc]>[EAc] [CEA]2 (3[CE-A][EB][EAc] | %16
 [DGB]>[DGB] [DGB]>[DGB] [FA]2 (3[CF-A][FB]A |[M:3/4] G6 |] %18
V:2
 z4 z2 [G,B,]>[G,B,] | [G,B,D]>[G,B,D] [G,B,D]>[K:treble][G,B,D] [G,DG]2[K:bass] [G,B,]>[G,B,] | %2
 [D,D]2 [D,D]>[D,D] [D,D]2 D,>D, | [D,D]>[D,D] [D,D]>[D,D] [D,D]2 [D,D]>[D,D] | %4
 [G,DG]2 [G,D]>[G,D] [G,D]2 [G,G]>[G,A,G] | [G,B,G]>[G,B,G] [G,B,G]>[G,B,G] [G,DG]2 [G,CG]>[G,DG] | %6
 C,>C, C,>C, C,2 (3C,-[C,D]C, | D,>D, D,>D, D,2 (3D,-[D,D]D, |[M:3/4] G,,6 |[M:1/4] [G,B,]>[G,B,] | %10
[M:4/4] [G,B,D]2 [G,B,]>[G,B,] [G,D]2 [G,B,D]>[G,B,D] | [D,D]2 [D,D]>[D,D] [D,D]2 D,>D, | %12
 [D,D]2 [D,D]>[D,D] [D,D]2 [D,D]>[D,D] | [G,DG]2 [G,D]>[G,D] [G,D]2 [G,G]>[G,A,G] | %14
 [G,B,G]>[G,B,G] [G,B,G]>[G,B,G] [G,DG]2 [G,CG]>[G,DG] | C,>C, C,>C, C,2 (3C,-[C,D]C, | %16
 D,>D, D,>D, C2 (3z[K:treble] D[CF] |[M:3/4] [G,B,]6 |] %18
V:3
 x8 | x8 | F2 F>F F2 D>D | x8 | z2 G>G G2 B>c | x8 | x8 | x8 |[M:3/4] x6 |[M:1/4] x2 | %10
[M:4/4] z2 D>D B2 G>G | F2 F>F F2 D>D | F2 F>F [Fc]2 [FA]>[FA] | z2 G>G G2 B>c | x8 | x8 | x8 | %17
[M:3/4] x6 |] %18
V:4
 x8 | x7/2[K:treble] x5/2[K:bass] x2 | x8 | x8 | x8 | x8 | x8 | x8 |[M:3/4] x6 |[M:1/4] x2 | %10
[M:4/4] x8 | x8 | x8 | x8 | x8 | x8 | z4 z2 D,2[K:treble] |[M:3/4] x6 |] %18

